X: 143
T: Missa Tous les regretz / Gloria
N: Derived from Rue1031b-Missa_Tous_les_regretz-Gloria.krn
C: Pierre de la Rue
%%abc-version 2.0
%%abcx-abcm2ps-target-version 5.9.1 (29 Sep 2008)
%%abc-creator hum2abc beta
%%abcx-conversion-date 2019/02/17 08:01:15
%%abc-edited-by Jesse Rodin
%%abc-edited-by Chris Gage 06-11-2013
%%abcx-initial-encoding-date 2013/08/05/
%%humdrum-veritas 2453798825
%%humdrum-veritas-data 1244857845
%%linebreak <none>
%%barnumbers 0
L: 1/4
M: 2/1
Q: 1/2=120
%%staves [1 2 3 4]
V: 1 clef=treble
V: 2 clef=treble-8
V: 3 clef=treble-8
V: 4 clef=bass
K: C
[V:1] z8 | 
[V:2] d4d2d2- | 
[V:3] z8 | 
[V:4] z8 | 
[V:1] z4A4 | 
[V:2] d2cBd2c2 | 
[V:3] z8 | 
[V:4] z8 | 
[V:1] A2A4GF | 
[V:2] cBAGF4 | 
[V:3] z8 | 
[V:4] z8 | 
[V:1] A2G2GFED | 
[V:2] c4c2c2 | 
[V:3] z8 | 
[V:4] z8 | 
[V:1] C4z2F2 | 
[V:2] A3G/F/_B2A2- | 
[V:3] z8 | 
[V:4] z4D,4 | 
[V:1] F2F4ED | 
[V:2] AGFED4 | 
[V:3] z8 | 
[V:4] D,2D,4C,B,, | 
[V:1] F2E3DCB, | 
[V:2] z4A4 | 
[V:3] A8 | 
[V:4] D,2C,3B,,A,,G,, | 
[V:1] A,4z2c2 | 
[V:2] c4c2c2 | 
[V:3] A4A2GF | 
[V:4] F,,8 | 
[V:1] c2c2c4- | 
[V:2] e4e2c2- | 
[V:3] A2G2GFED | 
[V:4] z2C,2C,4 | 
[V:1] c4B4 | 
[V:2] cBA2G4 | 
[V:3] C2F4E2 | 
[V:4] A,,2F,,2G,,4 | 
[V:1] A4z2A2 | 
[V:2] A8 | 
[V:3] F4c4 | 
[V:4] F,,8 | 
[V:1] A2A2E4 | 
[V:2] z2A2A2A2 | 
[V:3] c4c4 | 
[V:4] z4z2A,,2 | 
[V:1] z2E2G2G2 | 
[V:2] E4z2E2 | 
[V:3] c8 | 
[V:4] C,2C,2C,2C,2 | 
[V:1] G2G2D2D2 | 
[V:2] E2G2G2G2 | 
[V:3] B8 | 
[V:4] G,,2G,,2B,,2B,,2 | 
[V:1] F2F2A4 | 
[V:2] D2D2F2F2 | 
[V:3] A4A4 | 
[V:4] D,4A,,4- | 
[V:1] E4z2c2- | 
[V:2] A4E2A2- | 
[V:3] c8 | 
[V:4] A,,8 | 
[V:1] c2B2A2G2- | 
[V:2] A2G2F2E2 | 
[V:3] c4c4- | 
[V:4] z8 | 
[V:1] G2F4E2 | 
[V:2] A4G4 | 
[V:3] c4B4 | 
[V:4] z8 | 
[V:1] F4F4- | 
[V:2] F4c4- | 
[V:3] A8- | 
[V:4] z4F,,4- | 
[V:1] F2F2F4 | 
[V:2] c2c2c4 | 
[V:3] A8 | 
[V:4] F,,2F,,2F,,4 | 
[V:1] E4D2E2- | 
[V:2] G2c2B2G2 | 
[V:3] z8 | 
[V:4] C,2A,,2B,,2C,2- | 
[V:1] E2E2D2E2- | 
[V:2] c4B2G2 | 
[V:3] z8 | 
[V:4] C,2A,,2B,,2C,2- | 
[V:1] E2DCD2E2- | 
[V:2] c4B2G2 | 
[V:3] z8 | 
[V:4] C,2A,,2B,,2C,2 | 
[V:1] E2C2D2E2 | 
[V:2] c2A2B2c2 | 
[V:3] z8 | 
[V:4] A,,4z4 | 
[V:1] F4C4 | 
[V:2] d2A3Gc2- | 
[V:3] z8 | 
[V:4] z4A,,4 | 
[V:1] D4D4 | 
[V:2] c2BAB4 | 
[V:3] z8 | 
[V:4] D,4D,4 | 
[V:1] E8- | 
[V:2] c4E3F | 
[V:3] z8 | 
[V:4] C,8 | 
[V:1] E8 | 
[V:2] G2A2A2c2- | 
[V:3] z8 | 
[V:4] z4C,4 | 
[V:1] z8 | 
[V:2] c2B4A2- | 
[V:3] z4A4 | 
[V:4] D,4C,4 | 
[V:1] z8 | 
[V:2] A2^G^F^G4 | 
[V:3] d4d4 | 
[V:4] B,,8 | 
[V:1] z4E3F | 
[V:2] A8 | 
[V:3] c8 | 
[V:4] A,,8 | 
[V:1] G2A4c2- | 
[V:2] z8 | 
[V:3] z4c4 | 
[V:4] z8 | 
[V:1] c2B4A2- | 
[V:2] z8 | 
[V:3] d4c4 | 
[V:4] z8 | 
[V:1] A2^G^FG4 | 
[V:2] z4d4 | 
[V:3] B8 | 
[V:4] z8 | 
[V:1] A2c2c2B2 | 
[V:2] f2f2e4 | 
[V:3] A4A2G2 | 
[V:4] z8 | 
[V:1] c2A2B2G2- | 
[V:2] z2f2d2e2- | 
[V:3] A2F2G2E2- | 
[V:4] z8 | 
[V:1] G2A2A2G2 | 
[V:2] e2c2d2e2 | 
[V:3] E2c2A2B2 | 
[V:4] z2F,2F,2E,2 | 
[V:1] A2F2G2E2- | 
[V:2] c2d2B2c2- | 
[V:3] A2B2G4 | 
[V:4] F,2D,2E,2C,2- | 
[V:1] E2F2F2E2 | 
[V:2] c2A2B2c2 | 
[V:3] A4F2G2 | 
[V:4] C,2D,2D,2C,2 | 
[V:1] F2D2E2C2 | 
[V:2] A2B2G2A2- | 
[V:3] F2G2E2F2- | 
[V:4] D,2B,,2C,2A,,2 | 
[V:1] A,2D4^C2 | 
[V:2] A2A2A4 | 
[V:3] F2D2E4 | 
[V:4] D,4A,,4 | 
[V:1] D4z4 | 
[V:2] z2d2d2B2- | 
[V:3] D8- | 
[V:4] z2B,,4G,,2 | 
[V:1] z2B4A2 | 
[V:2] B2AGd4 | 
[V:3] D8- | 
[V:4] G,,4G,,2F,,2 | 
[V:1] B2A4G2 | 
[V:2] dcBAB4 | 
[V:3] D8- | 
[V:4] G,,2F,,2G,,4 | 
[V:1] A2B4G2- | 
[V:2] A2d4cB | 
[V:3] D8 | 
[V:4] z2G,,2B,,3C, | 
[V:1] G2^F2G4 | 
[V:2] A4G4 | 
[V:3] z8 | 
[V:4] D,4z2G,,2 | 
[V:1] z2D2F3G | 
[V:2] z4z2A2 | 
[V:3] z8 | 
[V:4] B,,3C,D,4 | 
[V:1] A4z2D2 | 
[V:2] c2c2d4 | 
[V:3] z8 | 
[V:4] z2A,,2B,,3C, | 
[V:1] F3GA2A,2 | 
[V:2] z2D2F3G | 
[V:3] z8 | 
[V:4] D,8 | 
[V:1] C3DE4 | 
[V:2] A4z2A2 | 
[V:3] z8 | 
[V:4] A,,8 | 
[V:1] z2A,2C3D | 
[V:2] c3BA2GF | 
[V:3] A8- | 
[V:4] z2F,,2A,,3B,, | 
[V:1] E2A,2C3D | 
[V:2] E2F2E2F2 | 
[V:3] A8- | 
[V:4] C,2D,2A,,3B,, | 
[V:1] E2F2G2A2- | 
[V:2] E2D2C2c2- | 
[V:3] A8- | 
[V:4] C,2D,2E,2F,2- | 
[V:1] A2G4^F2 | 
[V:2] c2d3cBA | 
[V:3] A8 | 
[V:4] F,E,D,C,D,4 | 
[V:1] G8 | 
[V:2] B4z2d2- | 
[V:3] G8- | 
[V:4] G,,4z2G,,2 | 
[V:1] z2G4G2 | 
[V:2] d2d2e2c2- | 
[V:3] G8 | 
[V:4] G,,2G,,2C,4 | 
[V:1] G2G2A4 | 
[V:2] cBG4^F2 | 
[V:3] c8 | 
[V:4] C,2B,,2A,,4 | 
[V:1] B4G4 | 
[V:2] G8 | 
[V:3] B8 | 
[V:4] G,,8 | 
[V:1] z2A2A2A2 | 
[V:2] c3FF4 | 
[V:3] z4A4 | 
[V:4] z8 | 
[V:1] c4B4 | 
[V:2] z2E2F2E2- | 
[V:3] A6G2 | 
[V:4] z2C,2D,2E,2 | 
[V:1] z2A4G2 | 
[V:2] E2e2f2e2- | 
[V:3] c4B4 | 
[V:4] A,,2C,2D,2E,2 | 
[V:1] A2E2F2G2- | 
[V:2] e4d2c2 | 
[V:3] z2A2A2G2 | 
[V:4] A,,2C,2D,2E,2- | 
[V:1] G2E2F2G2 | 
[V:2] e4d2c2 | 
[V:3] c4B4 | 
[V:4] E,2C,2D,2E,2 | 
[V:1] C2E2F2G2- | 
[V:2] e2c4B2 | 
[V:3] z2A2A2G2 | 
[V:4] A,,2C,2D,2E,2 | 
[V:1] G2C2E2F2 | 
[V:2] e6c2 | 
[V:3] c8 | 
[V:4] C,3B,,A,,4 | 
[V:1] G2A2B4- | 
[V:2] d8- | 
[V:3] B8- | 
[V:4] G,,8- | 
[V:1] B4G4 | 
[V:2] d8- | 
[V:3] B8- | 
[V:4] G,,8- | 
[V:1] G8 ||  
[V:2] d8 ||  
[V:3] B8 ||  
[V:4] G,,8 ||  
[V:1]  [K:C] [K:clef=treble][M:2/1]E4E4- | 
[V:2]  [K:C] [K:clef=treble-8][M:2/1]c4c4 | 
[V:3]  [K:C] [K:clef=treble-8][M:2/1]A8 | 
[V:4]  [K:C] [K:clef=bass][M:2/1]A,,8 | 
[V:1] E2FGA4 | 
[V:2] cBAGF3E | 
[V:3] A4A4 | 
[V:4] A,,4A,,4 | 
[V:1] D4D4- | 
[V:2] G8 | 
[V:3] B4B4 | 
[V:4] G,,4G,,4 | 
[V:1] D2EFG4 | 
[V:2] G4G4 | 
[V:3] B4B4 | 
[V:4] G,,4G,,4 | 
[V:1] C4C4 | 
[V:2] E4E2F2- | 
[V:3] A8- | 
[V:4] A,,8- | 
[V:1] C8 | 
[V:2] F2EDE4 | 
[V:3] A8 | 
[V:4] A,,8 | 
[V:1] z4F4 | 
[V:2] D4d4 | 
[V:3] z8 | 
[V:4] D,8 | 
[V:1] F2F4ED | 
[V:2] d2d4cB | 
[V:3] z8 | 
[V:4] z4D,4 | 
[V:1] A4A4 | 
[V:2] A4z4 | 
[V:3] z4A4 | 
[V:4] D,2D,4C,B,, | 
[V:1] z4A4 | 
[V:2] c4c2c2- | 
[V:3] A2A4GF | 
[V:4] A,,8 | 
[V:1] A2A4GF | 
[V:2] c2BAe4 | 
[V:3] c8- | 
[V:4] z8 | 
[V:1] c8 | 
[V:2] E6C2 | 
[V:3] c8 | 
[V:4] A,,4A,,2A,,2- | 
[V:1] A4G4 | 
[V:2] C4E3F | 
[V:3] c4c4 | 
[V:4] A,,2G,,F,,C,4 | 
[V:1] z2G4F2 | 
[V:2] G4d4 | 
[V:3] B4A4 | 
[V:4] z4D,4 | 
[V:1] G2A4G2- | 
[V:2] z2d4B2 | 
[V:3] G4F2G2 | 
[V:4] E,2D,4E,2 | 
[V:1] G2F2G2A2- | 
[V:2] d4B2c2 | 
[V:3] A4G4 | 
[V:4] D,4E,2C,2 | 
[V:1] A2G2E2F2- | 
[V:2] A2c3BAG | 
[V:3] F2G2A4 | 
[V:4] D,2E,2C,2D,2- | 
[V:1] F2EDE4 | 
[V:2] F2A2G4 | 
[V:3] F4z4 | 
[V:4] D,2C,B,,C,4 | 
[V:1] A,6A,2 | 
[V:2] F4F4- | 
[V:3] c6c2 | 
[V:4] F,,6F,,2 | 
[V:1] A,4A,4 | 
[V:2] F2F2C4 | 
[V:3] c8 | 
[V:4] F,,2F,,2A,,2A,,2 | 
[V:1] D4D4 | 
[V:2] z2G4G2 | 
[V:3] B4B4 | 
[V:4] G,,4G,,4 | 
[V:1] D4D4 | 
[V:2] G2G2G4 | 
[V:3] B4B4 | 
[V:4] G,,8 | 
[V:1] C4C4 | 
[V:2] C4F4 | 
[V:3] A8 | 
[V:4] A,,4F,,4 | 
[V:1] B,4z2B2- | 
[V:2] D4d4 | 
[V:3] G8 | 
[V:4] G,,8 | 
[V:1] B2B2B4 | 
[V:2] d2d4d2 | 
[V:3] G8 | 
[V:4] B,,8 | 
[V:1] c3BA2GF | 
[V:2] c2F4ED | 
[V:3] A8 | 
[V:4] A,,8 | 
[V:1] E4z4 | 
[V:2] C4z4 | 
[V:3] z2c2c2B2- | 
[V:4] z2E,2E,2D,2- | 
[V:1] z8 | 
[V:2] z8 | 
[V:3] B2A4^G2 | 
[V:4] D,2C,2B,,4 | 
[V:1] z2c2c2B2- | 
[V:2] z2e2e2d2- | 
[V:3] A4z4 | 
[V:4] A,,4z4 | 
[V:1] B2A4^G2 | 
[V:2] d2c2B4 | 
[V:3] z8 | 
[V:4] z8 | 
[V:1] A4z4 | 
[V:2] A4z4 | 
[V:3] z2F2F2E2- | 
[V:4] z2A,2A,2G,2- | 
[V:1] z8 | 
[V:2] z8 | 
[V:3] E2D4^C2 | 
[V:4] G,2F,2E,4 | 
[V:1] z2F2F2E2- | 
[V:2] z8 | 
[V:3] D2A2A2G2- | 
[V:4] D,4z4 | 
[V:1] E2D4^C2 | 
[V:2] z4A4 | 
[V:3] G2F2E4 | 
[V:4] z4A,,4 | 
[V:1] D8 | 
[V:2] F2F2F4 | 
[V:3] D8 | 
[V:4] _B,,2B,,4B,,2 | 
[V:1] z4E4 | 
[V:2] F2F2c4 | 
[V:3] z4A4 | 
[V:4] _B,,2B,,2A,,4 | 
[V:1] F2F4F2 | 
[V:2] c4z2c2 | 
[V:3] A2A4A2 | 
[V:4] F,,8 | 
[V:1] F2F2E4 | 
[V:2] c2c2c2c2 | 
[V:3] A2A2A4 | 
[V:4] z4A,,4 | 
[V:1] C4z2E2 | 
[V:2] G8 | 
[V:3] E8 | 
[V:4] C,2C,2C,2C,2 | 
[V:1] G2G2G2G2 | 
[V:2] z4d4 | 
[V:3] z2E2G2G2 | 
[V:4] G,,4z4 | 
[V:1] D4z4 | 
[V:2] f4c4- | 
[V:3] F2F2A4 | 
[V:4] D,4F,4- | 
[V:1] A4c2c2- | 
[V:2] c4c4 | 
[V:3] A2c3BA2- | 
[V:4] F,4F,2F,2- | 
[V:1] c2c2B2B2 | 
[V:2] c4G2d2 | 
[V:3] A2F4E2 | 
[V:4] F,2F,,2G,,4 | 
[V:1] A2A4G2 | 
[V:2] z2f4e2 | 
[V:3] F2c2c4 | 
[V:4] F,,2F,4C,2 | 
[V:1] F4E4 | 
[V:2] d4c4 | 
[V:3] A4A4 | 
[V:4] D,4A,,4 | 
[V:1] z4E4 | 
[V:2] z4e4 | 
[V:3] z4A4 | 
[V:4] z4A,,4 | 
[V:1] G4G4 | 
[V:2] e8 | 
[V:3] B8 | 
[V:4] E,6E,2 | 
[V:1] A8 | 
[V:2] c4d4 | 
[V:3] A4A4- | 
[V:4] F,4D,4 | 
[V:1] A4E4 | 
[V:2] e4c4 | 
[V:3] A4z2A2 | 
[V:4] A,,4z2A,,2 | 
[V:1] z2E2G2G2 | 
[V:2] z2c2B2B2 | 
[V:3] G2G2G4 | 
[V:4] C,2C,2E,2E,2 | 
[V:1] A2A4A2 | 
[V:2] A2A2e4 | 
[V:3] c2F2c4 | 
[V:4] F,2D,2A,,4 | 
[V:1] A4E2c2- | 
[V:2] A4z2e2- | 
[V:3] z2c4c2 | 
[V:4] z2F,,2C,2A,,2 | 
[V:1] c2B2G2A2- | 
[V:2] e2e4c2 | 
[V:3] G3AB2A2- | 
[V:4] E,4E,2F,2 | 
[V:1] AFF4G2 | 
[V:2] d2B2A2G2 | 
[V:3] A2d4B2 | 
[V:4] D,4D,2E,2 | 
[V:1] E2F3DD2- | 
[V:2] z4d4- | 
[V:3] c2A2B4- | 
[V:4] C,2D,2B,,3G,, | 
[V:1] D2G4^F2 | 
[V:2] d4d4 | 
[V:3] B2AGA4 | 
[V:4] G,,4D,4 | 
[V:1] G4z2F2 | 
[V:2] z2B2c2d2 | 
[V:3] z2G2A4 | 
[V:4] G,,4z2D,2 | 
[V:1] G2E2F2D2 | 
[V:2] B2c2A2B2 | 
[V:3] G4z2F2 | 
[V:4] E,2C,2D,4 | 
[V:1] E2F2D2E2 | 
[V:2] c2A2B2G2 | 
[V:3] G2F2G4 | 
[V:4] C,2D,2B,,2C,2- | 
[V:1] C2D2E2C2 | 
[V:2] A2B2E2e2- | 
[V:3] z2G4A2- | 
[V:4] C,2G,,2C,2A,,2 | 
[V:1] E2F2G3F | 
[V:2] e2d3cBA | 
[V:3] A2A2B2G2- | 
[V:4] C,2D,2G,,4 | 
[V:1] EDD4^C2 | 
[V:2] A8 | 
[V:3] G2F2E4 | 
[V:4] A,,8 | 
[V:1] D8 |]  
[V:2] A8 |]  
[V:3] D8 |]  
[V:4] D,8 |]  



